icons/drop-filled.svg

<svg width="24" height="24" viewBox="0 0 24 24" fill="none" xmlns="http://www.w3.org/2000/svg">
<path fill-rule="evenodd" clip-rule="evenodd" d="M11.4189 3.29738C11.6302 3.00396 12.0528 2.90616 12.3698 3.10177C12.4491 3.15067 12.5283 3.22402 12.5811 3.29738C12.9509 3.81085 13.3472 4.37323 13.7962 4.98451C15.883 7.82084 19 12.0753 19 14.5204C19 16.3054 18.2075 17.9192 16.9396 19.0928C15.6717 20.2665 13.9283 21 12 21C10.0717 21 8.3283 20.2665 7.06038 19.1173C5.79245 17.9436 5 16.3298 5 14.5449C5 12.0998 8.11698 7.82084 10.2038 4.98451C10.6792 4.34878 11.0755 3.81085 11.4189 3.29738ZM15.9997 14.0003C15.0006 14.0003 15.0006 14.9997 15.0006 14.9997C15.0006 16.081 14.1243 17.001 12.9997 17.001C12.9997 17.001 11.9997 17.006 11.9997 18.0028C11.9997 18.9997 12.9997 18.9997 12.9997 18.9997C15.2088 18.9997 16.9997 17.2088 16.9997 14.9997C16.9997 14.9997 16.9987 14.0003 15.9997 14.0003Z" fill="#3A3A47"/>
</svg>

<svg xmlns="http://www.w3.org/2000/svg" width="24" height="24" viewBox="0 0 24 24">
    <path fill="#3A3A47" fill-rule="evenodd" d="M11.419 3.297a.722.722 0 0 1 .95-.195c.08.049.16.122.212.195.37.514.766 1.076 1.215 1.688C15.883 7.82 19 12.075 19 14.52c0 1.785-.792 3.4-2.06 4.573A7.257 7.257 0 0 1 12 21a7.355 7.355 0 0 1-4.94-1.883C5.792 17.944 5 16.33 5 14.545c0-2.445 3.117-6.724 5.204-9.56.475-.636.871-1.174 1.215-1.688zM15.999 14c-.998 0-.998 1-.998 1A2.004 2.004 0 0 1 13 17s-1 .005-1 1.002S13 19 13 19a4 4 0 0 0 4-4s-.001-1-1-1z"/>
</svg>
